resources/haticons/SVG/twilio1.svg

<!-- Generated by IcoMoon.io -->
<svg version="1.1" xmlns="http://www.w3.org/2000/svg" width="24" height="24" viewBox="0 0 24 24">
<title>twilio1</title>
<path fill="#f22f46" d="M12 0c-6.619-0.008-11.992 5.352-12 11.971v0.029c0 6.64 5.359 12 12 12s12-5.36 12-12c0-6.641-5.36-12-12-12zM12 20.801c-4.846 0.015-8.786-3.904-8.801-8.75v-0.051c-0.014-4.846 3.904-8.786 8.75-8.801h0.051c4.847-0.014 8.786 3.904 8.801 8.75v0.051c0.015 4.847-3.904 8.786-8.75 8.801zM17.44 9.041c0 1.359-1.12 2.479-2.481 2.479-1.366-0.007-2.472-1.113-2.479-2.479 0-1.361 1.12-2.481 2.479-2.481 1.361 0 2.481 1.12 2.481 2.481zM17.44 14.96c0 1.36-1.12 2.48-2.481 2.48-1.367-0.008-2.473-1.114-2.479-2.48 0-1.359 1.12-2.479 2.479-2.479 1.361-0.001 2.481 1.12 2.481 2.479zM11.521 14.96c0 1.36-1.12 2.48-2.479 2.48-1.368-0.007-2.475-1.113-2.481-2.48 0-1.359 1.12-2.479 2.481-2.479 1.358-0.001 2.479 1.12 2.479 2.479zM11.521 9.041c0 1.359-1.12 2.479-2.479 2.479-1.367-0.007-2.475-1.112-2.481-2.479 0-1.361 1.12-2.481 2.481-2.481 1.358 0 2.479 1.12 2.479 2.481z"></path>
</svg>

<svg xmlns="http://www.w3.org/2000/svg" width="24" height="24"><path fill="#f22f46" d="M12 0C5.381-.008.008 5.352 0 11.971V12c0 6.64 5.359 12 12 12s12-5.36 12-12c0-6.641-5.36-12-12-12zm0 20.801c-4.846.015-8.786-3.904-8.801-8.75V12a8.777 8.777 0 0 1 8.75-8.801H12a8.776 8.776 0 0 1 8.801 8.75V12c.015 4.847-3.904 8.786-8.75 8.801zm5.44-11.76a2.492 2.492 0 0 1-2.481 2.479 2.492 2.492 0 0 1-2.479-2.479 2.492 2.492 0 0 1 2.479-2.481 2.493 2.493 0 0 1 2.481 2.481zm0 5.919c0 1.36-1.12 2.48-2.481 2.48a2.492 2.492 0 0 1-2.479-2.48 2.492 2.492 0 0 1 2.479-2.479 2.492 2.492 0 0 1 2.481 2.479zm-5.919 0c0 1.36-1.12 2.48-2.479 2.48a2.492 2.492 0 0 1-2.481-2.48 2.492 2.492 0 0 1 2.481-2.479 2.492 2.492 0 0 1 2.479 2.479zm0-5.919a2.492 2.492 0 0 1-2.479 2.479 2.492 2.492 0 0 1-2.481-2.479A2.493 2.493 0 0 1 9.042 6.56a2.493 2.493 0 0 1 2.479 2.481z"/></svg>
